X:1
T: Lady Charlotte Gordon's Reel
C:William Marshall
R:Reel
Q: 232
K:F
M:4/4
L:1/8
|:f2 cf Bf Af|f2 af gG G2|f2 cf Bf Af|BG cB AF F2|
f2 cf Bf Af|f2 af gG G2|f2 cf Bf Af|db ge af f2|
AF cF dF cF|fd cA BG GB|AF cF dF cF|af ge fF FB|
AF cF dF cF|fd cA BG GB|AF cF de fg|af ge fF F2:|
